.local/share/icons/Gruvbox-Plus-Dark/apps/16/bandcamp.svg

<svg width="16" height="16" version="1.1" xmlns="http://www.w3.org/2000/svg">
  <defs>
    <style id="current-color-scheme" type="text/css">.ColorScheme-Text { color:#ebdbb2; } .ColorScheme-Highlight { color:#458588; }</style>
  </defs>
  <path class="ColorScheme-Text" d="m0 3.469v9.062h2.265v-0.2c0.364 0.131 0.747 0.198 1.133 0.2 1.877 0 3.398-1.522 3.398-3.398 0-0.901-0.358-1.766-0.995-2.403-0.638-0.637-1.502-0.995-2.403-0.995-0.386 1e-3 -0.769 0.069-1.133 0.199v-2.465h-2.265zm12.08 0c-1.202 0-2.354 0.478-3.204 1.327-0.85 0.85-1.327 2.002-1.327 3.204s0.477 2.354 1.327 3.204c0.85 0.849 2.002 1.327 3.204 1.327 1.616-3e-3 3.108-0.866 3.917-2.266h-3.917c-1.252 0-2.266-1.014-2.266-2.265s1.014-2.265 2.266-2.265h3.918c-0.808-1.4-2.302-2.264-3.918-2.266zm-8.684 4.531c0.3 0 0.588 0.119 0.801 0.332 0.212 0.212 0.332 0.5 0.332 0.801 0 0.3-0.12 0.588-0.332 0.801-0.213 0.212-0.501 0.331-0.801 0.331-0.626 0-1.133-0.507-1.133-1.132 0-0.626 0.507-1.133 1.133-1.133z" fill="currentColor"/>
</svg>

<svg xmlns="http://www.w3.org/2000/svg" style="isolation:isolate" width="16" height="16" viewBox="0 0 16 16">
 <defs>
  <style id="current-color-scheme" type="text/css">
   .ColorScheme-Text { color:#ebdbb2; } .ColorScheme-Highlight { color:#458588; }
  </style>
  <linearGradient id="arrongin" x1="0%" x2="0%" y1="0%" y2="100%">
   <stop offset="0%" style="stop-color:#d79921; stop-opacity:1"/>
   <stop offset="100%" style="stop-color:#b57614; stop-opacity:1"/>
  </linearGradient>
  <linearGradient id="aurora" x1="0%" x2="0%" y1="0%" y2="100%">
   <stop offset="0%" style="stop-color:#83a598; stop-opacity:1"/>
   <stop offset="100%" style="stop-color:#b16286; stop-opacity:1"/>
  </linearGradient>
  <linearGradient id="fitdance" x1="0%" x2="0%" y1="0%" y2="100%">
   <stop offset="0%" style="stop-color:#8ec07c; stop-opacity:1"/>
   <stop offset="100%" style="stop-color:#458588; stop-opacity:1"/>
  </linearGradient>
  <linearGradient id="oomox" x1="0%" x2="0%" y1="0%" y2="100%">
   <stop offset="0%" style="stop-color:#458588; stop-opacity:1"/>
   <stop offset="100%" style="stop-color:#928374; stop-opacity:1"/>
  </linearGradient>
  <linearGradient id="rainblue" x1="0%" x2="0%" y1="0%" y2="100%">
   <stop offset="0%" style="stop-color:#b8bb26; stop-opacity:1"/>
   <stop offset="100%" style="stop-color:#076678; stop-opacity:1"/>
  </linearGradient>
  <linearGradient id="sunrise" x1="0%" x2="0%" y1="0%" y2="100%">
   <stop offset="0%" style="stop-color: #fe8019; stop-opacity:1"/>
   <stop offset="100%" style="stop-color: #fabd2f; stop-opacity:1"/>
  </linearGradient>
  <linearGradient id="telinkrin" x1="0%" x2="0%" y1="0%" y2="100%">
   <stop offset="0%" style="stop-color: #83a598; stop-opacity:1"/>
   <stop offset="100%" style="stop-color: #83a598; stop-opacity:1"/>
  </linearGradient>
  <linearGradient id="60spsycho" x1="0%" x2="0%" y1="0%" y2="100%">
   <stop offset="0%" style="stop-color: #fb4934; stop-opacity:1"/>
   <stop offset="25%" style="stop-color: #fabd2f; stop-opacity:1"/>
   <stop offset="50%" style="stop-color: #fe8019; stop-opacity:1"/>
   <stop offset="100%" style="stop-color: #689d6a; stop-opacity:1"/>
  </linearGradient>
  <linearGradient id="90ssummer" x1="0%" x2="0%" y1="0%" y2="100%">
   <stop offset="0%" style="stop-color: #b16286; stop-opacity:1"/>
   <stop offset="20%" style="stop-color: #8ec07c; stop-opacity:1"/>
   <stop offset="50%" style="stop-color: #fabd2f; stop-opacity:1"/>
   <stop offset="100%" style="stop-color: #458588; stop-opacity:1"/>
  </linearGradient>
  <linearGradient id="cyberneon" x1="0%" x2="0%" y1="0%" y2="100%">
    <stop offset="0" style="stop-color:#83a598; stop-opacity:1"/>
    <stop offset="1" style="stop-color:#b16286; stop-opacity:1"/>
  </linearGradient>
 </defs>
 <path style="fill:currentColor" class="ColorScheme-Text" d="M 0 3.469 L 0 9.133 L 0 12.531 L 2.265 12.531 L 2.265 12.331 C 2.629 12.462 3.012 12.529 3.398 12.531 C 5.275 12.531 6.796 11.009 6.796 9.133 C 6.796 8.232 6.438 7.367 5.801 6.73 C 5.163 6.093 4.299 5.735 3.398 5.735 C 3.012 5.736 2.629 5.804 2.265 5.934 L 2.265 3.469 L 0 3.469 Z M 12.082 3.469 C 10.88 3.469 9.728 3.947 8.878 4.796 C 8.028 5.646 7.551 6.798 7.551 8 C 7.551 9.202 8.028 10.354 8.878 11.204 C 9.728 12.053 10.88 12.531 12.082 12.531 C 13.698 12.528 15.19 11.665 15.999 10.265 L 12.082 10.265 C 10.83 10.265 9.816 9.251 9.816 8 C 9.816 6.749 10.83 5.735 12.082 5.735 L 16 5.735 C 15.192 4.335 13.698 3.471 12.082 3.469 Z M 3.398 8 C 3.698 8 3.986 8.119 4.199 8.332 C 4.411 8.544 4.531 8.832 4.531 9.133 C 4.531 9.433 4.411 9.721 4.199 9.934 C 3.986 10.146 3.698 10.265 3.398 10.265 C 2.772 10.265 2.265 9.758 2.265 9.133 C 2.265 8.507 2.772 8 3.398 8 L 3.398 8 Z"/>
</svg>
